X:43
T:Alexander's Hornpipe
T:Sandlark Hornpipe, The
R:hornpipe
Z:id:hn-hornpipe-43
M:C|
K:D
(3ABc|dAFA DFAd|fdcd Acef|~g3e fdcd|(3efe (3dcB A2 (3ABc|
dAFA DFAd|fdcd Acef|~g3e fdcd|(3efe dc d2:|
|:AG|FAdA FAdA|GBdB GBdB|Acec Acec|dfaf (3gfe dA|
FAdA FAdA|GBdB GBdB|Acef gecd|(3efe dc d2:|
<end>
<start>
